src/lib/packages/icons/src/assets/line/pills.svg

<svg width="24" height="24" viewBox="0 0 24 24" fill="none" xmlns="http://www.w3.org/2000/svg">
<path d="M21.75 7.97803C21.75 6.44803 21.154 5.00998 20.072 3.92798C18.99 2.84598 17.552 2.25 16.022 2.25C14.492 2.25 13.053 2.84598 11.972 3.92798L3.927 11.9729C2.845 13.0549 2.24902 14.4929 2.24902 16.0229C2.24902 17.5529 2.845 18.991 3.927 20.073C5.008 21.155 6.44705 21.751 7.97705 21.751C9.50705 21.751 10.946 21.155 12.027 20.073L16.038 16.062C16.048 16.053 16.0599 16.05 16.0699 16.041C16.0799 16.032 16.0819 16.019 16.0909 16.009L20.072 12.0281C21.154 10.9461 21.75 9.50703 21.75 7.97803ZM10.967 19.012C10.168 19.81 9.10703 20.25 7.97803 20.25C6.84903 20.25 5.78801 19.81 4.98901 19.012C4.19001 18.213 3.75098 17.1519 3.75098 16.0229C3.75098 14.8939 4.19001 13.8329 4.98901 13.0339L8.49597 9.5271L14.475 15.5049L10.967 19.012ZM15.535 14.4441L9.55603 8.46606L13.033 4.98901C13.832 4.19101 14.893 3.75098 16.022 3.75098C17.151 3.75098 18.212 4.19101 19.011 4.98901C19.81 5.78801 20.249 6.84903 20.249 7.97803C20.249 9.10703 19.81 10.168 19.011 10.967L15.535 14.4441ZM8.12402 12.2681C8.41702 12.5611 8.41702 13.0361 8.12402 13.3291L7.36401 14.0891C6.70401 14.7501 6.37799 15.663 6.46899 16.595C6.50999 17.008 6.20802 17.374 5.79602 17.415C5.77202 17.417 5.74605 17.418 5.72205 17.418C5.34105 17.418 5.01505 17.1289 4.97705 16.7419C4.84005 15.3609 5.32398 14.0071 6.30298 13.0281L7.06299 12.2681C7.35599 11.9751 7.83102 11.9751 8.12402 12.2681Z" fill="currentColor"/>
</svg>

<svg xmlns="http://www.w3.org/2000/svg" width="24" height="24" fill="none"><path fill="currentColor" d="M21.75 7.978a5.69 5.69 0 0 0-1.678-4.05 5.69 5.69 0 0 0-4.05-1.678c-1.53 0-2.969.596-4.05 1.678l-8.045 8.045a5.69 5.69 0 0 0-1.678 4.05 5.69 5.69 0 0 0 1.678 4.05 5.688 5.688 0 0 0 4.05 1.678c1.53 0 2.969-.596 4.05-1.678l4.011-4.011c.01-.009.022-.012.032-.021.01-.009.012-.022.02-.032l3.982-3.98a5.692 5.692 0 0 0 1.678-4.051ZM10.967 19.012a4.202 4.202 0 0 1-2.989 1.238c-1.129 0-2.19-.44-2.989-1.238a4.198 4.198 0 0 1-1.238-2.99c0-1.128.439-2.19 1.238-2.988l3.507-3.507 5.979 5.978-3.508 3.507Zm4.568-4.568L9.556 8.466l3.477-3.477a4.202 4.202 0 0 1 2.989-1.238c1.129 0 2.19.44 2.989 1.238a4.198 4.198 0 0 1 1.238 2.989c0 1.129-.439 2.19-1.238 2.989l-3.476 3.477Zm-7.411-2.176a.75.75 0 0 1 0 1.061l-.76.76a3.106 3.106 0 0 0-.895 2.506.75.75 0 1 1-1.492.147 4.592 4.592 0 0 1 1.326-3.714l.76-.76a.75.75 0 0 1 1.061 0Z"/></svg>
